Adwaita++-Dark/actions/16/document-revert.svg

<svg height="16" width="16" xmlns="http://www.w3.org/2000/svg">
  <g fill="#e6ddff">
    <path d="m10 11v-2h1c1 0 1 1 1 1v4h2v-4c0-3-3-3-3-3h-1v-2l-4.5 3z"/>
    <path d="m3 15s-1 0-1-1v-12c0-1 1-1 1-1h10s1 0 1 1v4h-2v-3h-8v10h8 2v1c0 1-1 1-1 1z"/>
  </g>
</svg>

<svg xmlns="http://www.w3.org/2000/svg" width="16" height="16" version="1.1">
 <path style="fill:#E6DDFF" d="M 10,11 V 9 H 11 C 12,9 12,10 12,10 V 14 H 14 V 10 C 14,7 11,7 11,7 H 10 V 5 L 5.5,8 Z"/>
 <path style="fill:#E6DDFF" d="M 3,15 C 3,15 2,15 2,14 V 2 C 2,1 3,1 3,1 H 13 C 13,1 14,1 14,2 V 6 H 12 V 3 H 4 V 13 H 12 V 13 H 14 V 14 C 14,15 13,15 13,15 Z"/>
</svg>
